X: 2396
M: C
L: 1/8
K: Bb
(uFE) |\
|: vBc |\
d(3(B/c/B/) AB GBFB | DFBc d(3(B/c/B/) AB |\
gBfB edcB | GccB ABce |\
d(3(B/c/B/) AB GBFB | DFBc d(3(B/c/B/) AB |\
gBfB edcB | AFGA B2 :|


